X:832
T:Reel 832
M:4/4
K:Dmaj
L:1/8
AG|FDDF EDB,A,|FDDF d2cd|FDDD EDDE|FEED E2EF|G<E (3EFE E>E (3EB,A, |F>D (3DCD A,2DA,|B,EEF EFGE| (3FGA Bc d2|
